X: 1040
T: Hicaz-Hümâyûn Seyir
C: Şefik Gürmeriç
O: Turkey
F: http://compmusic.upf.edu/node/140
N: hicaz-humayun--seyir--sofyan--1--sefik_gurmeric
N: makam= hicaz-humayun
N: form= seyir
N: usul= sofyan = 4/4
M: 4/4
L: 1/16
K: C _7/8B ^c  
Q: 1/4=60
%%MIDI tuningsystem comma53
A6B2 c2d2 e2f2  | e2d2 d2c2 d4 z4  | \
w:   |   | 
z2d4e2 f3e d2b2  | a2g2 f2g2 a4 z4  | 
w:   |   | 
z2g4a2 b4 a2g2  | g2f2 e2d2 c4 z4  | \
w:   |   | 
z2d4e2 f4 e2d2  | c2B2 A2c2 B8  | 
w:   |   | 
A4 a4 g2f2 e2d2  | c3B cBBA A8  | |


